X:944080
T:Joyful Joyful We Adore Thee
T: Ode to Joy
H:
B:
C:Ludwig van Beethoven
O:Kevin Fraser
Z:Kevin Fraser
Q:1/4=60
% K:HP
K:Dmaj
M:none
M:4/4
L:1/8
R:March
U:V = !accent!
V:M name="Melody" sname="Melody" gstem=up stem=down " " transpose=1
V:H name="Harmony" sname="Harmony" gstem=up stem=down " "  transpose=1
V:C name="Bass" sname="Bass" gstem=up stem=down " transpose=1
V:S clef=perc name="Snare" sname="Snare" middle=G gstem=up stem=down dyn=up stafflines=1 " " " 
V:B clef=none name="Bass" sname="Bass" gstem=up stem=down dyn=up " " 
V:T clef=none name="Tenor" sname="Tenor" gstem=up stem=down dyn=up " " 
V:BB clef=bass octave=-1 transpose=-1 name="Brass Bass" sname="ABCD-C" gstem=up stem=down " " 
V:BC transpose=-1 name="Brass Chord" sname="ABCD-D" gstem=up stem=down " " 
V:BD transpose=-1 name="Brass Chord 2" sname="ABCD-B" gstem=up stem=down " " 
V:P octave=-1 name="Piano" gstem=up stem=down " 
%%MIDI gracedivider 40
%%MIDI beatstring 
%%score {M }
% %score {M H}
V:Trumpet clef=treble transpose=0 name="Trumpet" sname="Trumpet" 
V:HornF clef=treble transpose=0 name="Horn F" sname="Horn F" 
V:Trombone clef=bass transpose=0 name="Trombone" sname="Trombone" octave=-1
V:Tuba clef=bass transpose=0 name="Tuba" sname="Tuba" 
V:Guitar clef=treble transpose=0 name="Guitar" sname="Guitar" 
V:Organ clef=treble transpose=0 name="Organ" sname="Organ" 
V:Bari clef=treble transpose=0 name="Bari" sname="Bari" 
V:Alto clef=treble transpose=0 name="Alto Sax" sname="Alto Sax" 
V:Drums
%%MIDI channel 10
%%MIDI program 0
%%MIDI drummap F 36 %bass drum 1
%%MIDI drummap c 38 %acoustic snare
%%MIDI drummap ^D 44 %pedal hi-hat
%%MIDI drummap ^f 51 %ride cymbal 1
%%MIDI drummap ^g 42 %closed hi hat
%%MIDI drummap ^a 49 %crash cymbal 1
%%MIDI drummap ^b 52 %chinese cymbal
%%MIDI drummap e 50 %high tom
%%MIDI drummap d 48 %hi mid tom
%%MIDI drummap B 45 %low tom
%%MIDI drummap A 41 %low floor tom
%%MIDI Channel 10
%%MIDI vol 100
V:M
%%MIDI program 109
%%MIDI channel 1
V:H
%%MIDI program 109
%%MIDI channel 1
V:Tuba
%%MIDI channel 2
%%MIDI program 59
V:Trumpet
%%MIDI channel 3
%%MIDI program 66
V:Trombone
%%MIDI channel 4
%%MIDI program 58
%%MIDI gchord on
V:Bari
%%MIDI channel 5
%%MIDI program 68
V:Alto
%%MIDI channel 7
%%MIDI program 66
V:HornF
%%MIDI channel 6
%%MIDI program 62
[V:M] {g}c{d}c {g}de  {g}ed {g}cB | {g}A{G}A {g}Bc  {g}c-c/>B/ {G}B2 | $
w: ho ho ha e he a ho o | hen den ho o ho-o o do
[V:M] {g}c{d}c {g}de  {g}ed {g}cB | {g}A{G}A {g}Bc  {g}B-B/>A/ {GAG}A2 |]  $
w:ho ho ha e he a ho o | hen den ho o ho-o en rarin
[V:M] {g}B{G}B {g}cA  {g}Bc/d/ {g}cA | {g}Bc/d/ {g}cB  {g}AB {g}e{A}e | $
w: ho ho ho en ho o-a ho en | ho o-a ho o hen o e de
[V:M] {g}c{d}c {g}de  {g}ed {g}cB | {g}A{G}A {g}Bc  {g}B-B/>A/ {GAG}A2 |] $
w:ho ho ha e he a ho o | hen den ho o ho-o en rarin
[V:M] {g}f{e}f {gf}ga {g}ag {a}fe | {g}d{c}d {g}ef {g}f-f/e/ {A}e2 | $
w: che de viri I li di che e | ha da he ve che-e de
[V:M] {g}f{e}f {gf}ga {g}ag {a}fe | {g}d{c}d {g}ef {g}e-e/d/ {gdc}d2 |] $
w: che de viri I li di che e | ha da he ve he-e a da 
[V:M] {g}e{A}e {g}fd {g}ef/g/ {a}fd | {g}ef/g/ {a}fe {g}de {g}A{G}A
w: he de che a he ve di che a | he ve di che e ha e hen den
[V:M] {g}f{e}f {gf}ga {g}ag {a}fe | {g}d{c}d {g}ef {g}e-e/d/ {gdc}d2 |] $
w: che de viri I li di che e | ha da he ve he-e a da 
[V:Trombone] Z | FF GA AG FE | DD EF G2 G2 | A2 A2 Aa FD | 
[V:Trombone] A8  | AA =AF BE =AA- | AA B_C' _C'B AG | FF GF G>F F2 | 
[V:Tuba] Z | Z | DD DD DD DD | DD CD C-C/D D2 |
[V:Tuba] z2 DF Az DF | A/G/D/e FF F=G/E/ AC, | D4 G4 | A4 A2 D2 | 
[V:Alto] AA BA A3G | 

[V:Bari]C8 | G6 F2 | E4 F2 G2 | G8 |

[V:H] {g}A{g}A {g}Bc  {g}cB {g}AG | {g}A{g}A {g}GA  {g}A-A/>G/ {g}G2 | $
[V:H] {g}A{g}A {g}Bc  {g}cB {g}AG | {g}A{g}A {g}GA  {g}G-G/>a/ {g}a2 |] $
[V:H] {g}e{g}e {a}fg  {g}eA/B/ Ac | dc/B/ cc cB G2 | $
[V:H] {g}A{g}A {g}Bc  {g}cB {g}AG | {g}A{g}A {g}GA  {g}G-G/>a/ {g}a2 |] $
W: "The Hymn of Joy" (often called "Joyful, Joyful We Adore Thee" after the first line) 
W: is a poem written by Henry van Dyke in 1907 with the intention of musically 
W: setting it to the famous "Ode to Joy" melody of the final movement of 
W: Ludwig van Beethoven's final symphony, Symphony No. 9. (Wikipedia)











